X:1
T: Youngest Daughter, The
C: R-63
M: C|
Z:
R: reel
K: Em
%
"Em"E2BE dEBe| "Bm"dBAF DEFD| "Em"E2BE dEBe| "Bm"dBAF "Em"BEE2:|
|:\
"Em"Eeef gfed| "Bm"BdAF DEFD| "Em"Eeef gfed| "Bm"BdAF "Em"BEE2 |
"Em"Eeef gfed| "Bm"BdAF DEFD| "Em"afge "F#m"fde^c| "Bm"dBAF "Em"BEE2 :|
%
